casedrop/img/bonus/icons/gift.svg

<svg width="55" height="55" viewBox="0 0 55 55" fill="none" xmlns="http://www.w3.org/2000/svg">
<path d="M44.6878 17.7604H41.4795C42.3962 16.6604 42.9691 15.2854 42.9691 13.75C42.9691 10.2667 40.1503 7.44791 36.667 7.44791C32.817 7.44791 29.4253 9.4875 27.5003 12.5125C25.5753 9.4875 22.1837 7.44791 18.3337 7.44791C14.8503 7.44791 12.0316 10.2667 12.0316 13.75C12.0316 15.2854 12.6045 16.6604 13.5212 17.7604H10.3128C8.73158 17.7604 7.44824 19.0437 7.44824 20.625V26.3542C7.44824 27.7292 8.43366 28.8292 9.73991 29.1042V44.6875C9.73991 46.2687 11.0232 47.5521 12.6045 47.5521H42.3962C43.9774 47.5521 45.2607 46.2687 45.2607 44.6875V29.1042C46.567 28.8292 47.5524 27.7292 47.5524 26.3542V20.625C47.5524 19.0437 46.2691 17.7604 44.6878 17.7604ZM44.1149 25.7812H29.2191V21.1979H44.1149V25.7812ZM36.667 10.8854C38.2482 10.8854 39.5316 12.1687 39.5316 13.75C39.5316 15.3312 38.2482 16.6146 36.667 16.6146H29.4253C30.2045 13.3375 33.1607 10.8854 36.667 10.8854ZM18.3337 10.8854C21.8399 10.8854 24.7962 13.3375 25.5753 16.6146H18.3337C16.7524 16.6146 15.4691 15.3312 15.4691 13.75C15.4691 12.1687 16.7524 10.8854 18.3337 10.8854ZM10.8857 21.1979H25.7816V25.7812H10.8857V21.1979ZM13.1774 29.2187H25.7816V44.1146H13.1774V29.2187ZM41.8232 44.1146H29.2191V29.2187H41.8232V44.1146Z" fill="#2B59FF"/>
</svg>

<svg width="55" height="55" fill="none" xmlns="http://www.w3.org/2000/svg"><path d="M44.688 17.76h-3.209c.917-1.1 1.49-2.475 1.49-4.01a6.299 6.299 0 00-6.302-6.302c-3.85 0-7.242 2.04-9.167 5.064-1.925-3.024-5.316-5.064-9.166-5.064a6.299 6.299 0 00-6.302 6.302c0 1.535.572 2.91 1.49 4.01h-3.21a2.866 2.866 0 00-2.864 2.865v5.73c0 1.374.986 2.474 2.292 2.75v15.582a2.866 2.866 0 002.864 2.865h29.792a2.866 2.866 0 002.865-2.864V29.104c1.306-.275 2.291-1.375 2.291-2.75v-5.729a2.866 2.866 0 00-2.864-2.865zm-.573 8.021H29.219v-4.583h14.896v4.583zm-7.448-14.896a2.866 2.866 0 010 5.73h-7.242c.78-3.277 3.736-5.73 7.242-5.73zm-18.333 0c3.506 0 6.462 2.453 7.241 5.73h-7.241a2.866 2.866 0 010-5.73zm-7.448 10.313h14.896v4.583H10.886v-4.583zm2.291 8.02h12.605v14.897H13.177V29.219zm28.646 14.897H29.22V29.219h12.604v14.896z" fill="#2B59FF"/></svg>
